packages/core/src/svgs/tokens/branded/MCHC.svg

<svg width="24" height="24" viewBox="0 0 24 24" fill="none" xmlns="http://www.w3.org/2000/svg">
<path fill-rule="evenodd" clip-rule="evenodd" d="M22 12C22 14.6522 20.9464 17.1957 19.0711 19.071C17.1957 20.9464 14.6522 22 12 22C9.34784 22 6.80429 20.9464 4.92892 19.071C3.05357 17.1957 2 14.6522 2 12C2 9.34785 3.05357 6.80429 4.92892 4.92892C6.80429 3.05357 9.34784 2 12 2C14.6522 2 17.1957 3.05357 19.0711 4.92892C20.9464 6.80429 22 9.34785 22 12ZM3.05882 9.74699L5.39999 9.96468C5.41764 11.3529 5.72352 14.1235 6.7941 14.1412C7.87058 14.1647 8.18234 11.5706 8.20588 10.2353H15.9293C15.9529 11.5706 16.2647 14.1647 17.3411 14.1412C18.4117 14.1235 18.7177 11.3529 18.7352 9.96468L21.0764 9.74699C21.6294 12.0294 21.2353 14.0293 20.9706 14.747C18.3118 17.3353 15.4647 15.8529 14.3235 14.4588C13.4647 13.4 12.5 13.1177 12.0706 13.1059C11.6294 13.1177 10.6706 13.4 9.80586 14.4588C8.67058 15.8588 5.82352 17.3353 3.1647 14.747C2.6829 13.1199 2.64633 11.3932 3.05882 9.74699ZM7.30587 4.01765C7.08753 5.34181 7.13955 6.69647 7.45882 7.99998C7.52352 8.22352 7.77646 8.64704 8.26469 8.53528C8.87646 8.39998 8.78235 7.69998 8.67058 7.1294C8.55293 6.55881 8.55293 4.94705 8.67058 3.35293C8.32352 3.48235 7.57058 3.79999 7.30587 4.01765ZM16.647 7.99998C17.0823 6.39999 16.9294 4.67647 16.8059 4.01765C16.5412 3.79999 15.7823 3.48823 15.4411 3.35293C15.553 4.94705 15.553 6.55881 15.4411 7.1294C15.3235 7.69998 15.2293 8.39998 15.8412 8.54116C16.3294 8.64704 16.5824 8.22352 16.647 7.99998ZM5.62353 5.3294C5.32353 5.61764 4.65293 6.31764 4.37647 6.81175C4.31764 7.58822 4.37647 9.12352 5.01764 9.01763C5.82352 8.88823 5.76469 8.2294 5.5647 7.25293C5.53528 6.63529 5.57059 6.13528 5.59999 5.76469C5.61176 5.58822 5.62353 5.44117 5.62353 5.3294ZM19.7353 6.81175C19.4588 6.31764 18.7882 5.61764 18.4882 5.3294C18.4882 5.44117 18.4941 5.58235 18.5118 5.76469C18.5353 6.13528 18.5705 6.63529 18.5471 7.25293C18.3471 8.2294 18.2823 8.88823 19.0942 9.01763C19.7412 9.12352 19.7883 7.58822 19.7353 6.81175ZM10.7941 2.78235C11.1883 2.73529 12.2353 2.6647 13.2647 2.78235C13.5176 4.84117 13.6471 8.97645 12.1294 9.03528C10.4235 9.09998 10.6 4.89411 10.7882 2.78235H10.7941Z" fill="url(#paint0_linear_364_9244)"/>
<defs>
<linearGradient id="paint0_linear_364_9244" x1="4.75882" y1="5.65293" x2="18.9823" y2="18.9705" gradientUnits="userSpaceOnUse">
<stop stop-color="#E122FC"/>
<stop offset="1" stop-color="#26C5E2"/>
</linearGradient>
</defs>
</svg>

<svg xmlns="http://www.w3.org/2000/svg" width="24" height="24" fill="none" viewBox="0 0 24 24">
    <path fill="url(#MCHC__a)" fill-rule="evenodd" d="M22 12a10 10 0 1 1-20 0 10 10 0 0 1 20 0M3.059 9.747l2.341.218c.018 1.388.324 4.159 1.394 4.176 1.077.024 1.388-2.57 1.412-3.906h7.723c.024 1.336.336 3.93 1.412 3.906 1.07-.018 1.377-2.788 1.394-4.176l2.341-.218c.553 2.282.16 4.282-.105 5-2.66 2.588-5.506 1.106-6.648-.288-.858-1.059-1.823-1.341-2.252-1.353-.442.012-1.4.294-2.265 1.353-1.135 1.4-3.982 2.876-6.641.288a9.5 9.5 0 0 1-.106-5m4.247-5.73A9.9 9.9 0 0 0 7.459 8c.065.224.317.647.806.535.611-.135.517-.835.406-1.406-.118-.57-.118-2.182 0-3.776-.347.13-1.1.447-1.365.665M16.647 8c.435-1.6.282-3.324.159-3.982-.265-.218-1.024-.53-1.365-.665.112 1.594.112 3.206 0 3.776-.118.571-.212 1.271.4 1.412.488.106.741-.317.806-.541M5.624 5.33c-.3.288-.971.988-1.248 1.482-.058.776 0 2.312.642 2.206.806-.13.747-.789.547-1.765A11 11 0 0 1 5.6 5.765c.012-.177.024-.324.024-.436m14.111 1.482c-.276-.494-.947-1.194-1.247-1.483 0 .112.006.253.024.436.023.37.058.87.035 1.488-.2.976-.265 1.635.547 1.765.647.106.694-1.43.641-2.206m-8.94-4.03a12 12 0 0 1 2.47 0c.253 2.06.382 6.194-1.136 6.253-1.705.065-1.529-4.14-1.34-6.253z" clip-rule="evenodd"/>
    <defs>
        <linearGradient id="MCHC__a" x1="4.759" x2="18.982" y1="5.653" y2="18.971" gradientUnits="userSpaceOnUse">
            <stop stop-color="#E122FC"/>
            <stop offset="1" stop-color="#26C5E2"/>
        </linearGradient>
    </defs>
</svg>
